resources/devices/camera_video_1.svg

<?xml version="1.0" encoding="UTF-8" standalone="no"?>
<!-- Uploaded to: SVG Repo, www.svgrepo.com, Generator: SVG Repo Mixer Tools -->

<svg
   width="40"
   height="30"
   viewBox="0 0 40 30"
   fill="#000000"
   class="bi bi-camera-video"
   version="1.1"
   id="svg1"
   sodipodi:docname="camer_video_1.svg"
   inkscape:version="1.3.2 (091e20e, 2023-11-25)"
   xmlns:inkscape="http://www.inkscape.org/namespaces/inkscape"
   xmlns:sodipodi="http://sodipodi.sourceforge.net/DTD/sodipodi-0.dtd"
   xmlns="http://www.w3.org/2000/svg"
   xmlns:svg="http://www.w3.org/2000/svg">
  <defs
     id="defs1" />
  <sodipodi:namedview
     id="namedview1"
     pagecolor="#ffffff"
     bordercolor="#000000"
     borderopacity="0.25"
     inkscape:showpageshadow="2"
     inkscape:pageopacity="0.0"
     inkscape:pagecheckerboard="0"
     inkscape:deskcolor="#d1d1d1"
     inkscape:current-layer="svg1" />
  <path
     fill-rule="evenodd"
     d="M 0,4.9999998 A 4.9999998,4.9999998 0 0 1 4.9999998,3.449926e-8 H 23.749999 A 4.9999998,4.9999998 0 0 1 28.707498,4.3449998 L 36.482498,0.89 a 2.4999999,2.4999999 0 0 1 3.517501,2.2824999 V 21.8275 a 2.4999999,2.4999999 0 0 1 -3.515,2.282499 l -7.777501,-3.455 a 4.9999998,4.9999998 0 0 1 -4.957499,4.345 H 4.9999998 A 4.9999998,4.9999998 0 0 1 0,19.999999 Z M 28.749999,17.9375 l 8.75,3.89 V 3.1724999 l -8.75,3.8899998 z M 4.9999998,2.4999999 A 2.4999999,2.4999999 0 0 0 2.4999999,4.9999998 V 19.999999 a 2.4999999,2.4999999 0 0 0 2.4999999,2.5 H 23.749999 a 2.4999999,2.4999999 0 0 0 2.5,-2.5 V 4.9999998 a 2.4999999,2.4999999 0 0 0 -2.5,-2.4999999 z"
     id="path1"
     style="stroke-width:1" />
</svg>

<svg xmlns="http://www.w3.org/2000/svg" width="40" height="30" class="bi bi-camera-video">
    <path fill-rule="evenodd" d="M0 5a5 5 0 0 1 5-5h18.75a5 5 0 0 1 4.957 4.345L36.482.89A2.5 2.5 0 0 1 40 3.172v18.656a2.5 2.5 0 0 1-3.515 2.282l-7.778-3.455A5 5 0 0 1 23.75 25H5a5 5 0 0 1-5-5Zm28.75 12.938 8.75 3.89V3.172l-8.75 3.89zM5 2.5A2.5 2.5 0 0 0 2.5 5v15A2.5 2.5 0 0 0 5 22.5h18.75a2.5 2.5 0 0 0 2.5-2.5V5a2.5 2.5 0 0 0-2.5-2.5z" style="stroke-width:1"/>
</svg>
